X:23
T:Duke Street LM
S:John Moore's Book 3
Z:Transcribed by John Adams 05/2021  
%%VWML:Moore1-4495-p41-0
F:https://www.vwml.org/record/Moore3/4495/p41
M:C
L:1/4
K:Fmaj
V:1
A2cB|A2c2|c2^B2|c4||A2AA|B2c2|G2c2|c4||z4|
V:2
f2ff|f2(fg)|a2(gf)|e4||f2ff|f2g2|(fe)f2|e4||f2ff|
V:3
F2AB|c2(de)|f2(ed)|c4||c2cc|d2c2|B2A2|G4||A2AG|
V:4 clef=bass
F,2 F,F,|F,2(A,G,)|F,2G,2|C,4||F,2F,F,|B,2B,2|G,2F,2|C,4||F,2F,C,|

